components/ui-node-icon/src/apiColumn/apiColumn.large.svg

<svg width="32" height="32" viewBox="0 0 32 32" fill="none" xmlns="http://www.w3.org/2000/svg">
  <path fill-rule="evenodd" clip-rule="evenodd" d="M17 6C17 4.34315 15.6569 3 14 3H8C6.34315 3 5 4.34315 5 6V26C5 27.6569 6.34315 29 8 29H14C14.1087 29 14.216 28.9942 14.3217 28.983C12.2947 27.3327 11 24.8175 11 22C11 18.0813 13.5044 14.7476 17 13.5121V6Z" fill="var(--tbl--colors--icons--clean--secondary)"/>
  <path fill-rule="evenodd" clip-rule="evenodd" d="M29 22C29 26.9706 24.9706 31 20 31C15.0294 31 11 26.9706 11 22C11 17.0294 15.0294 13 20 13C24.9706 13 29 17.0294 29 22ZM21.8415 17.2475C21.4259 17.6111 21.3837 18.2429 21.7474 18.6585L24.6712 22L21.7474 25.3415C21.3837 25.7572 21.4259 26.3889 21.8415 26.7526C22.2571 27.1163 22.8889 27.0742 23.2526 26.6585L26.7526 22.6585C27.0825 22.2815 27.0825 21.7186 26.7526 21.3415L23.2526 17.3415C22.8889 16.9259 22.2571 16.8838 21.8415 17.2475ZM18.2526 25.3415C18.6163 25.7571 18.5741 26.3889 18.1585 26.7526C17.7429 27.1163 17.1111 27.0741 16.7474 26.6585L13.2474 22.6585C12.9175 22.2815 12.9175 21.7185 13.2474 21.3415L16.7474 17.3415C17.1111 16.9259 17.7429 16.8837 18.1585 17.2474C18.5741 17.6111 18.6163 18.2429 18.2526 18.6585L15.3288 22L18.2526 25.3415Z" fill="var(--tbl--colors--icons--clean--primary)"/>
</svg>

<svg xmlns="http://www.w3.org/2000/svg" width="32" height="32" fill="none" viewBox="0 0 32 32">
  <path fill="var(--tbl--colors--icons--clean--secondary)" fill-rule="evenodd" d="M17 6a3 3 0 0 0-3-3H8a3 3 0 0 0-3 3v20a3 3 0 0 0 3 3h6c.109 0 .216-.006.322-.017A9.004 9.004 0 0 1 17 13.513V6Z" clip-rule="evenodd"/>
  <path fill="var(--tbl--colors--icons--clean--primary)" fill-rule="evenodd" d="M29 22a9 9 0 1 1-18 0 9 9 0 0 1 18 0Zm-7.159-4.753a1 1 0 0 0-.094 1.412L24.671 22l-2.924 3.341a1 1 0 0 0 1.506 1.317l3.5-4a1 1 0 0 0 0-1.317l-3.5-4a1 1 0 0 0-1.412-.094Zm-3.588 8.095a1 1 0 0 1-1.506 1.317l-3.5-4a1 1 0 0 1 0-1.317l3.5-4a1 1 0 0 1 1.506 1.317L15.329 22l2.924 3.341Z" clip-rule="evenodd"/>
</svg>
